justvector/wordpress.svg

<?xml version="1.0" encoding="iso-8859-1"?>
<!-- Generator: Adobe Illustrator 15.0.0, SVG Export Plug-In . SVG Version: 6.00 Build 0)  -->
<!DOCTYPE svg PUBLIC "-//W3C//DTD SVG 1.1//EN" "http://www.w3.org/Graphics/SVG/1.1/DTD/svg11.dtd">
<svg version="1.1" id="Icons" xmlns="http://www.w3.org/2000/svg" xmlns:xlink="http://www.w3.org/1999/xlink" x="0px" y="0px"
	 width="100px" height="100px" viewBox="0 0 100 100" style="enable-background:new 0 0 100 100;" xml:space="preserve">
<path id="WordPress" d="M5,50c0,24.855,20.145,45,45,45c24.849,0,45-20.145,45-45C95,25.151,74.849,5,50,5C25.145,5,5,25.151,5,50z
	 M8.468,50c0-6.021,1.296-11.735,3.597-16.903l19.811,54.278C18.024,80.65,8.468,66.438,8.468,50z M50,91.531
	c-4.076,0-8.014-0.594-11.734-1.686L50.73,53.639L63.496,88.61c0.083,0.206,0.185,0.389,0.293,0.565
	C59.476,90.699,54.833,91.531,50,91.531z M83.565,49.221c2.369-5.925,3.161-10.662,3.161-14.874c0-1.529-0.102-2.948-0.287-4.273
	c3.242,5.919,5.086,12.704,5.086,19.927c0,15.324-8.301,28.698-20.644,35.893L83.565,49.221z M74.609,36.449
	c1.577,2.765,3.427,6.32,3.427,11.455c0,3.557-1.058,8.028-3.161,13.428l-4.144,13.836L55.721,30.53
	c2.505-0.136,4.751-0.396,4.751-0.396c2.239-0.266,1.972-3.549-0.26-3.426c0,0-6.73,0.531-11.072,0.531
	c-4.082,0-10.936-0.531-10.936-0.531c-2.239-0.123-2.499,3.296-0.266,3.426c0,0,2.123,0.26,4.362,0.396l6.464,17.729l-9.086,27.252
	L24.551,30.53c2.505-0.136,4.757-0.396,4.757-0.396c2.24-0.266,1.966-3.549-0.266-3.426c0,0-6.724,0.531-11.072,0.531
	c-0.778,0-1.693-0.02-2.669-0.048C22.729,15.916,35.494,8.469,50,8.469c10.813,0,20.657,4.136,28.043,10.908
	c-0.178-0.014-0.355-0.035-0.533-0.035c-4.089,0-6.977,3.551-6.977,7.367C70.534,30.135,72.507,33.03,74.609,36.449z"/>
</svg>

<?xml version="1.0" encoding="UTF-8" standalone="no"?>
<!DOCTYPE svg PUBLIC "-//W3C//DTD SVG 1.1//EN" "http://www.w3.org/Graphics/SVG/1.1/DTD/svg11.dtd">
<svg width="100%" height="100%" viewBox="0 0 100 100" version="1.1" xmlns="http://www.w3.org/2000/svg" xmlns:xlink="http://www.w3.org/1999/xlink" xml:space="preserve" xmlns:serif="http://www.serif.com/" style="fill-rule:evenodd;clip-rule:evenodd;stroke-linejoin:round;stroke-miterlimit:2;">
    <path id="WordPress" d="M5,50C5,74.855 25.145,95 50,95C74.849,95 95,74.855 95,50C95,25.151 5,25.151 5,50ZM8.468,50C8.468,43.979 31.876,87.375 31.876,87.375C18.024,80.65 8.468,66.438 8.468,50ZM50,91.531C45.924,91.531 41.986,90.937 38.266,89.845L50.73,53.639L63.496,88.61C63.579,88.816 63.681,88.999 63.789,89.175C59.476,90.699 54.833,91.531 50,91.531ZM83.565,49.221C85.934,43.296 91.525,42.778 91.525,50.001C91.525,65.325 83.224,78.699 70.881,85.894L83.565,49.221ZM39.678,75.511C39.678,75.511 78.036,42.769 78.036,47.904C78.036,51.461 76.978,55.932 74.875,61.332L70.731,75.168L48.764,48.259L39.678,75.511Z" style="fill-rule:nonzero;"/>
</svg>
